X: 091	% unnumbered in book
T: Money Musk
S: Viola Ruth "Pioneer Western Folk Tunes" 1948 p.9 #1
R: reel
Z: 2019 John Chambers <jc:trillian.mit.edu>
N: This is really two 4-bar phrases.
M: 2/8
L: 1/16
K: A
V: 1 name=" "
"Lively"f |\
eAcA eAdf | eAcA Bcdf | eAcd eaga | fdBe cAAf |\
eAcA eAdf |
eAcA Bcdf |eAcd eaga | fdBe cAAe \
:: "^Rocking bow"\
aeca eace | aedb caBg |
aeca eaga | fdBe cAAe |\
aeca eace | aedb caBg | aeca eaga | fdBe cAA :|
